svgs/regular/dice-d6.svg

<svg xmlns="http://www.w3.org/2000/svg" viewBox="0 0 448 512"><!-- Font Awesome Pro 6.0.0-alpha2 by @fontawesome - https://fontawesome.com License - https://fontawesome.com/license (Commercial License) --><path d="M431.875 116.108L239.875 4.219C235 1.406 229.5 0 224 0S213 1.406 208.125 4.219L16.125 116.108C6.125 121.984 0 132.735 0 144.486V367.514C0 379.265 6.125 390.016 16.125 395.892L208.125 507.781C213 510.594 218.5 512 224 512S235 510.594 239.875 507.781L431.875 395.892C441.875 390.016 448 379.265 448 367.514V144.486C448 132.735 441.875 121.984 431.875 116.108ZM224 50.6L376.375 139.361L224 228.247L71.625 139.361L224 50.6ZM48 181.116L200 269.752V447.398L48 358.888V181.116ZM248 447.398V269.752L400 181.116V358.888L248 447.398Z "></path></svg>

<svg xmlns="http://www.w3.org/2000/svg" viewBox="0 0 448 512"><!--! Font Awesome Pro 6.3.0 by @fontawesome - https://fontawesome.com License - https://fontawesome.com/license (Commercial License) Copyright 2023 Fonticons, Inc. --><path d="M431.9 116.1l-192-111.9C235 1.438 229.5 0 224 0S213 1.438 208.1 4.25l-192 111.9C6.125 121.1 0 132.7 0 144.5v223c0 11.75 6.125 22.48 16.12 28.36l192 111.9C213 510.6 218.5 512 224 512s11-1.438 15.88-4.25l192-111.9C441.9 390 448 379.3 448 367.5V144.5C448 132.7 441.9 121.1 431.9 116.1zM224 50.6l152.4 88.76L224 228.2L71.63 139.4L224 50.6zM48 181.1l152 88.64v177.6L48 358.9V181.1zM248 447.4V269.8l152-88.64v177.8L248 447.4z"/></svg>
